X:1
T:Empor zu Gott, mein Lobgesang
T:Satz: Jakob Prätorius (Schulz)
T:Friedrich Adolf Krummacher
T:Empor zu Gott, mein Lobgesang
T:CPDL - Creative Commons Attribution Non Commercial 3.0
C:Jakob Prätorius (Schulz)
Z:Friedrich Adolf Krummacher
Z:CPDL - Creative Commons Attribution Non Commercial 3.0
%%score [ ( 1 2 ) ( 3 4 ) ]
L:1/8
M:4/4
K:G
V:1 treble nm="Sopran\nAlt"
V:2 treble 
V:3 bass nm="Tenor\nBass"
V:4 bass 
V:1
 z2!f![Q:1/4=90]"^Fröhlich" G2 d2 d2 | e2 d2 cBcA | B4 z2 d2 | d2 d2 d2 B2 | c2 A2 G4 | %5
 z2 D2 G2 A2 | B3 A!<(! G2 A2 | B4!<)! z2!f! c2 | d2 d2 d2 B2 |!>(! c2 A2!>)! !fermata!G4 |] %10
V:2
 x2 D2 A2 G2 | G2 F2 G3 F | G4 x2 D2 | G2 F2 A2 D2 | E2 D2 B,4 | x2 B,2 E2 F2 | G3 F E2 E2 | %7
w: 1.~Em- por zu|Gott, mein Lob- ge-|sang! Er,|dem das Lied der|En- gel klang,|der ho- he|Freu- den- tag ist|
w: 2.~Vom Him- mel|kam in dunk- ler|Nacht, der|uns das Le- bens-|licht ge- bracht;|nun leuch- tet|uns ein mil- der|
w: 3.~Er kam, des|Va- ters E- ben-|bild, von|schlich- tem Pil- ger-|kleid um- hüllt,|und füh- ret|uns mit sanf- ter|
w: 4.~Er, der jetzt|bei dem Va- ter|thront, hat|un- ter uns, ein|Mensch, ge- wohnt,|da- mit auch|wir ihm wer- den|
w: 5.~Einst füh- ret|er zur Him- mels-|bahn uns,|sei- ne Brü- der,|auch hin- an,|und wan- delt|un- ser Pil- ger-|
 ^D4 x2 E2 | F2 G2 F2 D2 | E2 D2 B,4 |] %10
w: da, lob-|sin- get ihm, hal-|le- lu- ja!|
w: Strahl wie|Mor- gen- rot im|dun- keln Tal.|
w: Hand, ein|treu- er Hirt, ins|Va- ter- land.|
w: gleich auf|Er- den und im|Him- mel- reich.|
w: kleid in|Ster- nen- glanz und|Herr- lich- keit.|
V:3
 z2!f! B,2 A,2 B,2 | C2 A,2 EDED | D4 z2 B,2 | B,2 D2 A,2 B,2 | (A, G,2) F, G,4 | z2 G,2 B,2 D2 | %6
 D3 D!<(! B,2 E,2 | F,4!<)! z2!f! A,2 | A,2 B,2 A,2 B,2 |!>(! (A, G,2) F,!>)! !fermata!G,4 |] %10
V:4
 x2 G,2 F,2 G,2 | C,2 D,2 E,G,C,D, | G,4 x2 G,2 | G,2 D,2 F,2 G,2 | C,2 D,2 G,,4 | x2 G,2 E,2 D,2 | %6
 G,3 D, E,2 C,2 | B,,4 x2 A,,2 | D,2 G,,2 D,2 G,2 | B,,2 D,2 G,,4 |] %10

